dist/img/cart.svg

<svg width="22" height="18" viewBox="0 0 22 18" xmlns="http://www.w3.org/2000/svg"><title>Fill 3445 + Fill 3446 + Fill 3447</title><path d="M18.555 12.34h-11a.504.504 0 0 1-.466-.32L2.936 1.341H1v1c0 .279-.224.5-.5.5a.498.498 0 0 1-.5-.5v-1.5C0 .56.224.34.5.34h2.777c.206 0 .392.13.466.321l4.153 10.68H18.21l2.32-6.091L6.791 3.34a.507.507 0 0 1-.426-.569.504.504 0 0 1 .565-.42l14.36 2a.47.47 0 0 1 .361.24c.078.129.091.29.037.43l-2.667 6.999a.502.502 0 0 1-.466.32m-8.389.56a2.22 2.22 0 0 0-2.223 2.221c0 1.22.997 2.22 2.223 2.22a2.22 2.22 0 1 0 0-4.441zm0 1c.674 0 1.221.54 1.221 1.221a1.223 1.223 0 0 1-2.444 0c0-.681.547-1.221 1.223-1.221zm5.777-1a2.22 2.22 0 0 0-2.222 2.221c0 1.22.997 2.22 2.222 2.22 1.226 0 2.223-1 2.223-2.22a2.22 2.22 0 0 0-2.223-2.221zm0 1c.674 0 1.223.54 1.223 1.221a1.223 1.223 0 0 1-2.445 0c0-.681.547-1.221 1.222-1.221z" fill="#0A0B09" fill-rule="evenodd"/></svg>

<?xml version="1.0" encoding="UTF-8" standalone="no"?>
<svg width="22px" height="18px" viewBox="0 0 22 18" version="1.1" xmlns="http://www.w3.org/2000/svg" xmlns:xlink="http://www.w3.org/1999/xlink">
    <!-- Generator: Sketch 3.8.3 (29802) - http://www.bohemiancoding.com/sketch -->
    <title>Fill 3445 + Fill 3446 + Fill 3447</title>
    <desc>Created with Sketch.</desc>
    <defs></defs>
    <g id="Page-1" stroke="none" stroke-width="1" fill="none" fill-rule="evenodd">
        <g id="Desktop-HD" transform="translate(-1378.000000, -32.000000)" fill="#0A0B09">
            <g id="Cart" transform="translate(970.000000, 19.000000)">
                <g id="Fill-3445-+-Fill-3446-+-Fill-3447" transform="translate(408.000000, 13.000000)">
                    <path d="M18.555,12.34 L7.555,12.34 C7.349,12.34 7.163,12.21 7.089,12.02 L2.936,1.341 L1,1.341 L1,2.341 C1,2.62 0.776,2.841 0.5,2.841 C0.224,2.841 0,2.62 0,2.341 L0,0.841 C0,0.56 0.224,0.34 0.5,0.34 L3.277,0.34 C3.483,0.34 3.669,0.47 3.743,0.661 L7.896,11.341 L18.21,11.341 L20.53,5.25 L6.791,3.34 C6.518,3.301 6.327,3.041 6.365,2.771 C6.403,2.5 6.658,2.32 6.93,2.351 L21.29,4.351 C21.44,4.37 21.573,4.45 21.651,4.591 C21.729,4.72 21.742,4.881 21.688,5.021 L19.021,12.02 C18.948,12.21 18.762,12.34 18.555,12.34" id="Fill-3445"></path>
                    <path d="M10.166,12.9 C8.94,12.9 7.943,13.891 7.943,15.121 C7.943,16.341 8.94,17.341 10.166,17.341 C11.391,17.341 12.387,16.341 12.387,15.121 C12.387,13.891 11.391,12.9 10.166,12.9 L10.166,12.9 Z M10.166,13.9 C10.84,13.9 11.387,14.44 11.387,15.121 C11.387,15.791 10.84,16.341 10.166,16.341 C9.49,16.341 8.943,15.791 8.943,15.121 C8.943,14.44 9.49,13.9 10.166,13.9 L10.166,13.9 Z" id="Fill-3446"></path>
                    <path d="M15.943,12.9 C14.718,12.9 13.721,13.891 13.721,15.121 C13.721,16.341 14.718,17.341 15.943,17.341 C17.169,17.341 18.166,16.341 18.166,15.121 C18.166,13.891 17.169,12.9 15.943,12.9 L15.943,12.9 Z M15.943,13.9 C16.617,13.9 17.166,14.44 17.166,15.121 C17.166,15.791 16.617,16.341 15.943,16.341 C15.268,16.341 14.721,15.791 14.721,15.121 C14.721,14.44 15.268,13.9 15.943,13.9 L15.943,13.9 Z" id="Fill-3447"></path>
                </g>
            </g>
        </g>
    </g>
</svg>
